X:1
T:Title
%%score { ( 1 3 ) | ( 2 4 ) }
L:1/8
Q:1/4=100
M:4/4
K:Bb
V:1 treble nm="Grand Piano"
V:3 treble 
V:2 bass 
V:4 bass 
V:1
 B,4 D2 B,2 | F4 z2 F2 | [FB]4 [Fc]2 [Fc]2 | [Fd]4 z2 d2 | e4 d4 | d4 c2 c2 | d2 c2 B2 [DFA]2 | %7
w: Karl~Friedrich~Schulz * *|||||||
 [B,EG]4 [EGc]4 | c2 z2 B2 z2 | [DFB]2 [Fd]2 [Fd]2 [Fd]2 | [Ge]4 c4 | d2 [DB]2 [GB]2 [FB]2 | %12
w: |||||
 [Ec]4 A4 | [DB]6 z2 |] %14
w: ||
V:2
 B,,4 D,2 B,,2 | F,4 z2 [F,A,]2 | [D,B,]4 [F,A,]2 [F,A,]2 | [B,,B,]4 z2[K:treble] [B,F]2 | %4
 [A,CF]4 [B,F]4 | [F,B,F]4 [F,A,F]2 [F,A,F]2 | [B,F]2[K:bass] [F,A,E]2 [G,B,D]2 D,2 | E,4 C,4 | %8
 z2[K:treble] B2[K:bass] z2 A2 | B,,2 [B,,B,]2 [B,,B,]2 [B,,B,]2 | [E,B,]4[K:treble] [F,A,F]4 | %11
 [B,F]2[K:bass] [B,,B,]2 [E,B,]2 [D,B,]2 | [C,G,]4 [F,C]4 | [B,,F,]6 z2 |] %14
V:3
 x8 | x8 | x8 | x8 | x8 | x8 | x8 | x8 | [DF]4 [CF]4 | x8 | x8 | x8 | x8 | x8 |] %14
V:4
 x8 | x8 | x8 | x6[K:treble] x2 | x8 | x8 | x2[K:bass] x6 | x8 | F,4[K:treble][K:bass] F,,4 | x8 | %10
 x4[K:treble] x4 | x2[K:bass] x6 | x8 | x8 |] %14

